src/assets/img/ic-mechanical-operation.svg

<!--
  - Copyright (c) 2024. Devtron Inc.
  -
  - Licensed under the Apache License, Version 2.0 (the "License");
  - you may not use this file except in compliance with the License.
  - You may obtain a copy of the License at
  -
  -     http://www.apache.org/licenses/LICENSE-2.0
  -
  - Unless required by applicable law or agreed to in writing, software
  - distributed under the License is distributed on an "AS IS" BASIS,
  - WITHOUT WARRANTIES OR CONDITIONS OF ANY KIND, either express or implied.
  - See the License for the specific language governing permissions and
  - limitations under the License.
  -->

<svg data-style-override="false" width="250" height="200" viewBox="0 0 250 200" fill="none" xmlns="http://www.w3.org/2000/svg">
<style>
.gear-big {
  animation: rotate-clockwise 5s infinite alternate ease-in-out;
  transform-origin: center;
  transform-box: fill-box;
  }

  @keyframes rotate-clockwise {
      0% {
        transform: rotate(0deg);
      }
      100% {
        transform: rotate(720deg);
      }
    }

.gear-small {
  animation: rotate-counter-clockwise 5s infinite alternate ease-in-out;
  transform-origin: center;
  transform-box: fill-box;
  }

  @keyframes rotate-counter-clockwise {
      0% {
        transform: rotate(720deg);
      }
      100% {
        transform: rotate(0deg);
      }
    }
</style>
<path d="M65.5601 191.308C65.5601 191.192 66.7131 188.02 68.0981 184.213L70.6361 177.291L77.0961 177.118L83.4991 176.945L86.2671 179.252C88.5751 181.214 99.0631 186.799 100.399 187.559C101.29 188.065 102.466 189.353 103.925 191.423C78.3481 191.385 65.5601 191.346 65.5601 191.308V191.308Z" fill="#80AEF2"/>
<path d="M32 191.308C32 191.192 33.154 188.02 34.538 184.213L37.076 177.291L43.536 177.118L49.939 176.945L52.708 179.252C55.015 181.214 65.503 186.799 66.84 187.559C67.73 188.065 68.906 189.353 70.365 191.423C44.788 191.385 32 191.346 32 191.308Z" fill="#94BBF8"/>
<path d="M75.655 109.836C76.745 112.994 77.481 115.734 77.863 118.056C78.243 120.377 80.381 140.211 84.274 177.556H66.296C64.852 174.938 64.13 173.099 64.13 172.038C64.13 170.448 65.043 168.268 65.043 165.97C65.043 164.438 63.009 159.147 58.939 150.099L62.87 110.75L75.655 109.836V109.836Z" fill="#1D225F"/>
<path fill-rule="evenodd" clip-rule="evenodd" d="M50.5541 177.555H33.7601C33.3601 176.17 32.9681 174.301 32.5851 171.949C31.8351 167.161 32.4051 163.989 35.6351 157.413C38.8651 150.895 40.5011 147.341 40.5011 143.649C40.5591 137.881 41.7231 132.333 44.7811 126.334C47.1451 121.604 48.2761 121.248 48.5061 118.364L48.9261 112.162H70.0041C70.5161 113.595 70.7001 116.237 70.5541 120.087C70.4091 123.937 63.7421 143.093 50.5531 177.555H50.5541Z" fill="url(#paint0_linear_2664_5084)"/>
<path d="M95.9399 50.818L112.78 29.988H132.971L115.532 50.818H95.9399Z" fill="#98BDF9"/>
<path d="M118.14 27.384C119.518 27.384 120.646 28.454 120.737 29.809L120.743 29.988H120.165C120.165 28.869 119.258 27.963 118.14 27.963C117.021 27.963 116.115 28.869 116.115 29.988C116.115 31.05 116.933 31.922 117.974 32.006L118.14 32.013V32.591C116.702 32.591 115.536 31.426 115.536 29.988C115.536 28.55 116.702 27.384 118.14 27.384V27.384ZM125.083 27.384C126.461 27.384 127.589 28.454 127.681 29.809L127.687 29.988H127.108C127.108 28.869 126.202 27.963 125.083 27.963C123.965 27.963 123.058 28.869 123.058 29.988C123.058 31.05 123.876 31.922 124.917 32.006L125.083 32.013V32.591C123.645 32.591 122.479 31.426 122.479 29.988C122.479 28.55 123.645 27.384 125.083 27.384V27.384Z" fill="#2174DB"/>
<path d="M94.4722 54.8291C97.2792 53.8671 100.026 52.5301 102.714 50.8181H109.585C107.21 52.9881 105.613 54.5241 104.794 55.4281C103.974 56.3311 102.285 58.0661 99.7262 60.6331C98.6352 66.4141 97.4722 68.8431 96.2392 67.9181C94.3892 66.5321 88.3002 57.0211 94.4722 54.8281V54.8291Z" fill="#F3A29D"/>
<path d="M98.2542 60.6541C102.617 58.9861 105.433 57.7971 106.701 57.0871C108.201 56.2221 108.778 55.4141 110.508 51.7801C110.738 51.3191 111.2 49.4151 111.604 47.6271C112.527 43.0701 114.027 43.3011 114.142 47.9731C114.2 49.2431 114.488 50.3961 114.834 50.5111C115.122 50.6271 116.795 49.0111 118.468 46.9351C120.141 44.8581 121.756 43.1851 122.044 43.1851C122.736 43.1851 122.736 48.4921 121.987 50.3381C121.698 51.2031 117.257 56.0481 112.123 61.1821C108.701 64.6051 103.692 69.2501 97.0972 75.1191L98.2542 60.6541V60.6541Z" fill="#FAB6AF"/>
<path d="M78.5812 35.7741C79.3532 32.6881 80.1242 30.7591 80.8962 29.9871C79.7392 28.8301 78.5812 27.6731 76.2662 26.5161C75.4962 28.0591 73.9522 29.6021 71.6382 31.1451C71.6382 33.4591 72.4092 35.0021 73.9522 35.7741C75.4952 36.5451 77.0382 36.5451 78.5822 35.7741H78.5812Z" fill="#F3A29D"/>
<path d="M49.3081 112.98C46.9431 112.806 43.0781 111.999 40.8281 111.249L36.6181 109.864L36.5031 105.538C36.2141 93.5981 37.0801 84.8881 39.7911 73.7561C43.4821 58.4701 54.0962 42.8391 66.9592 33.6671C71.9192 30.0911 72.0351 30.0911 73.4771 32.5141C74.1111 33.6671 75.4371 34.8211 76.3611 35.1671L78.5221 35.7611C75.4761 65.0851 76.6522 89.3911 82.0532 108.678C80.8962 109.836 80.1071 110.36 79.2451 110.73C78.2061 111.133 76.8801 111.537 76.1881 111.595C75.4951 111.653 73.1881 112.114 70.9381 112.633C66.7281 113.556 57.5561 113.729 49.3081 112.979V112.98Z" fill="url(#paint1_linear_2664_5084)"/>
<path fill-rule="evenodd" clip-rule="evenodd" d="M94.4721 54.8281L96.2391 66.1391L76.2671 68.7841L77.3731 53.1311C79.5141 54.8661 81.7171 55.9071 83.9811 56.2541C86.2441 56.6021 89.7411 56.1261 94.4711 54.8281H94.4721Z" fill="#D6D7D8"/>
<path d="M98.2541 60.653L103.157 83.798C102.589 84.955 101.147 85.727 98.8331 86.112C93.6251 86.691 88.4181 84.376 82.0531 84.376C75.6881 84.376 75.9631 88.426 66.7051 84.956C60.5331 82.641 58.0251 72.226 59.1821 53.71L77.2361 51.98C77.1581 57.762 77.8911 61.232 79.4341 62.389C80.9461 63.523 87.0031 62.99 97.6041 60.789L98.2541 60.653V60.653Z" fill="#E9E9E9"/>
<path d="M90.3051 15.4439C91.3751 16.9639 91.7931 18.9799 91.5581 21.4929C91.4961 22.1489 91.1821 22.3759 91.1821 23.5449C91.1821 24.6649 91.2521 26.0509 91.3941 27.7019L89.0771 27.8629C86.8551 30.2749 84.5031 31.3429 82.0221 31.0699C79.5421 30.7949 77.7711 29.7269 76.7121 27.8629C74.5321 23.8399 75.0911 20.4189 78.3871 17.6009C81.6831 14.7829 85.6561 14.0639 90.3051 15.4439V15.4439Z" fill="#FAB6AF"/>
<path fill-rule="evenodd" clip-rule="evenodd" d="M79.646 8C82.244 8 85.363 9.017 87.64 10.74C89.917 12.462 91.485 13.76 92.19 15.837C92.66 17.221 92.438 19.151 91.526 21.628C91.656 19.283 91.478 17.981 90.993 17.722C90.323 19.375 89.398 19.709 88.29 20.509C87.67 20.957 85.499 21.027 83.373 21.406C80.745 23.128 79.07 24.736 78.506 26.266C78.058 27.484 78.104 28.874 78.654 30.443L78.78 30.782L78.24 30.992C77.526 29.159 77.43 27.514 77.963 26.067C78.485 24.65 79.813 23.229 81.857 21.746C80.767 22.053 79.806 22.5 79.223 23.195C77.944 24.721 77.195 26.96 76.977 29.911C74.211 29.411 71.672 28.478 69.36 27.111C67.048 25.745 64.915 23.917 62.962 21.628C63.358 20.794 63.866 20.104 64.483 19.558C65.154 18.966 66.418 18.45 67.652 17.736L67.587 17.757L66.383 18.158C65.123 18.582 64.427 18.871 63.988 19.19C63.158 19.791 62.728 20.465 62.675 21.222L62.67 21.413L62.091 21.42C62.079 20.381 62.607 19.477 63.648 18.721C64.075 18.411 64.661 18.148 65.631 17.805L67.387 17.215L67.997 17.002C68.591 16.789 69.061 16.601 69.436 16.418C70.732 15.019 71.606 12.447 73.526 10.74C75.641 8.855 77.048 8 79.645 8H79.646Z" fill="#E94A47"/>
<path d="M84.3598 21.5751C84.9568 19.9351 86.5298 18.9781 87.8948 19.4751C88.9558 19.8611 89.5488 20.9991 89.4808 22.2561C89.8408 22.1651 90.1698 22.1191 90.4688 22.1201L90.6768 22.1271C90.9318 22.1471 91.1428 22.1831 91.3128 22.2411C91.8248 20.9701 93.0208 20.2181 94.0628 20.5971C95.1328 20.9871 95.5608 22.4001 95.0748 23.7371C94.5878 25.0741 93.3518 25.8811 92.2808 25.4911C91.3278 25.1441 90.8838 23.9871 91.1408 22.7941C91.0378 22.7561 90.8668 22.7221 90.6328 22.7041C90.2988 22.6791 89.8958 22.7331 89.4248 22.8691L89.3938 22.8791C89.3578 23.0381 89.3108 23.1971 89.2538 23.3561C88.6568 24.9961 87.0838 25.9531 85.7178 25.4561C84.3518 24.9591 83.7628 23.2151 84.3598 21.5751V21.5751ZM93.8638 21.1411C93.1338 20.8751 92.1998 21.4841 91.8118 22.5491C91.4248 23.6151 91.7478 24.6811 92.4788 24.9471C93.2098 25.2131 94.1428 24.6041 94.5308 23.5391C94.9188 22.4741 94.5948 21.4071 93.8638 21.1411ZM87.6968 20.0191C86.6608 19.6421 85.3998 20.4091 84.9038 21.7731C84.4078 23.1361 84.8798 24.5351 85.9158 24.9131C86.9518 25.2891 88.2138 24.5211 88.7098 23.1581C89.2058 21.7951 88.7328 20.3961 87.6968 20.0181V20.0191Z" fill="#222768"/>
<path  class="gear-big" d="M153.783 115.079C153.334 114.679 152.886 112.836 152.686 110.892C152.287 106.954 151.988 106.406 149.097 104.861L147.004 103.714L143.216 105.259C141.122 106.107 139.129 106.705 138.78 106.555C137.833 106.206 132 95.8393 132 94.5433C132 93.8453 133.048 92.6493 135.24 90.9543L138.48 88.4123V82.9293L135.24 80.3873C133.197 78.7923 132 77.4973 132 76.8483C132 75.8013 137.085 66.4313 138.331 65.1853C138.929 64.6363 139.527 64.6863 142.368 65.7833C147.104 67.6273 147.453 67.6773 149.995 66.0323C152.238 64.5863 152.287 64.4873 152.636 61.3963C153.284 55.4653 152.486 56.0133 160.711 56.0133C169.035 56.0133 168.487 55.6643 169.135 61.5463L169.484 64.7863L172.076 66.1813L174.668 67.5773L177.858 66.2813C181.895 64.6363 183.041 64.6363 184.238 66.3813C186.331 69.4213 189.82 75.9513 189.82 76.8483C189.82 77.4963 188.624 78.7423 186.58 80.2383L183.39 82.6803V85.6703L183.34 88.6613L186.58 91.1043C188.624 92.6493 189.82 93.8943 189.82 94.4933C189.82 95.5403 184.238 105.409 183.141 106.306C182.593 106.755 181.496 106.506 178.555 105.309L174.618 103.764L172.076 105.16L169.534 106.555L168.935 110.543C168.587 113.234 168.088 114.78 167.54 115.228C166.244 116.175 154.73 116.076 153.783 115.078V115.079ZM165.197 95.4403C171.777 92.4503 173.571 84.1753 168.836 78.7423C162.556 71.6143 150.992 75.4523 150.044 84.9723C149.646 89.2593 153.035 94.3433 157.421 96.0383C159.016 96.6363 163.253 96.3383 165.197 95.4403V95.4403Z" fill="#222768"/>
<path class="gear-small" d="M176.263 146.231C174.418 145.085 172.773 143.988 172.623 143.789C172.474 143.539 172.823 142.244 173.372 140.948C174.368 138.655 174.368 138.505 173.522 136.91C172.823 135.565 172.325 135.266 170.381 135.016C166.742 134.518 166.891 134.767 166.891 129.583V124.848L168.786 124.549C172.375 123.951 172.624 123.851 173.571 122.306C174.468 120.761 174.418 120.711 173.421 118.269C172.823 116.923 172.474 115.577 172.624 115.378C172.923 114.829 179.752 110.842 180.35 110.842C180.599 110.842 181.646 111.839 182.692 113.085C184.138 114.829 184.886 115.328 186.082 115.328C187.278 115.328 188.026 114.829 189.472 113.085C190.518 111.839 191.565 110.842 191.814 110.842C192.412 110.842 199.241 114.829 199.54 115.378C199.69 115.578 199.34 116.923 198.792 118.268C197.795 120.561 197.745 120.811 198.493 122.256C199.291 123.752 199.689 123.951 203.428 124.549L205.272 124.849V129.583C205.272 134.767 205.422 134.518 201.782 135.016C199.889 135.266 199.34 135.565 198.642 136.91C197.845 138.456 197.845 138.605 198.792 141.097L199.789 143.689L198.393 144.636C195.851 146.381 192.363 148.225 191.664 148.225C191.216 148.225 190.219 147.278 189.372 146.181C188.125 144.437 187.577 144.088 186.082 144.038C184.587 143.988 184.138 144.288 182.742 146.132C181.895 147.278 180.798 148.225 180.4 148.225C179.951 148.225 178.107 147.328 176.263 146.231V146.231ZM189.372 135.515C193.858 133.172 193.858 126.144 189.272 123.702C183.44 120.562 177.06 126.892 180.101 132.823C181.696 135.913 186.131 137.16 189.371 135.515H189.372Z" fill="#E94A47"/>
<defs>
<linearGradient id="paint0_linear_2664_5084" x1="53.3662" y1="112.162" x2="38.2601" y2="175.224" gradientUnits="userSpaceOnUse">
<stop stop-color="#2A318C"/>
<stop offset="1" stop-color="#1D225F"/>
</linearGradient>
<linearGradient id="paint1_linear_2664_5084" x1="59.2517" y1="30.8201" x2="59.2517" y2="113.448" gradientUnits="userSpaceOnUse">
<stop stop-color="#EEEEEE"/>
<stop offset="1" stop-color="#D6D7D8"/>
</linearGradient>
</defs>
</svg>

<!--
  - Copyright (c) 2024. Devtron Inc.
  -
  - Licensed under the Apache License, Version 2.0 (the "License");
  - you may not use this file except in compliance with the License.
  - You may obtain a copy of the License at
  -
  -     http://www.apache.org/licenses/LICENSE-2.0
  -
  - Unless required by applicable law or agreed to in writing, software
  - distributed under the License is distributed on an "AS IS" BASIS,
  - WITHOUT WARRANTIES OR CONDITIONS OF ANY KIND, either express or implied.
  - See the License for the specific language governing permissions and
  - limitations under the License.
  -->

<svg width="250" height="200" viewBox="0 0 250 200" fill="none" xmlns="http://www.w3.org/2000/svg"><style>@keyframes rotate-clockwise{0%{transform:rotate(0deg)}to{transform:rotate(360deg)}}@keyframes rotate-counter-clockwise{0%{transform:rotate(360deg)}to{transform:rotate(0deg)}}</style><path d="M65.56 191.308c0-.116 1.153-3.288 2.538-7.095l2.538-6.922 6.46-.173 6.403-.173 2.768 2.307c2.308 1.962 12.796 7.547 14.132 8.307q1.337.759 3.526 3.864-38.365-.058-38.365-.115" fill="#80AEF2"/><path d="M32 191.308c0-.116 1.154-3.288 2.538-7.095l2.538-6.922 6.46-.173 6.403-.173 2.769 2.307c2.307 1.962 12.795 7.547 14.132 8.307q1.336.759 3.525 3.864Q32 191.365 32 191.308" fill="#94BBF8"/><path d="M75.655 109.836q1.635 4.737 2.208 8.22.57 3.482 6.411 59.5H66.296q-2.166-3.927-2.166-5.518c0-1.59.913-3.77.913-6.068q0-2.299-6.104-15.871l3.931-39.349z" fill="#1D225F"/><path fill-rule="evenodd" clip-rule="evenodd" d="M50.554 177.555H33.76q-.6-2.078-1.175-5.606c-.75-4.788-.18-7.96 3.05-14.536 3.23-6.518 4.866-10.072 4.866-13.764.058-5.768 1.222-11.316 4.28-17.315 2.364-4.73 3.495-5.086 3.725-7.97l.42-6.202h21.078q.769 2.15.55 7.925t-20 57.468" fill="url(#paint0_linear_2664_5084)"/><path d="m95.94 50.818 16.84-20.83h20.191l-17.439 20.83z" fill="#98BDF9"/><path d="M118.14 27.384a2.6 2.6 0 0 1 2.597 2.425l.006.179h-.578a2.025 2.025 0 1 0-2.191 2.018l.166.007v.578a2.603 2.603 0 1 1 0-5.207m6.943 0a2.604 2.604 0 0 1 2.598 2.425l.006.179h-.579a2.024 2.024 0 1 0-2.191 2.018l.166.007v.578a2.603 2.603 0 1 1 0-5.207" fill="#2174DB"/><path d="M94.472 54.83q4.21-1.444 8.242-4.012h6.871q-3.562 3.255-4.791 4.61t-5.068 5.205q-1.636 8.672-3.487 7.285c-1.85-1.386-7.939-10.897-1.767-13.09z" fill="#F3A29D"/><path d="M98.254 60.654q6.545-2.502 8.447-3.567c1.5-.865 2.077-1.673 3.807-5.307.23-.46.692-2.365 1.096-4.153.923-4.557 2.423-4.326 2.538.346.058 1.27.346 2.423.692 2.538.288.116 1.961-1.5 3.634-3.576s3.288-3.75 3.576-3.75c.692 0 .692 5.307-.057 7.153-.289.865-4.73 5.71-9.864 10.844q-5.133 5.134-15.026 13.937z" fill="#FAB6AF"/><path d="M78.581 35.774q1.157-4.629 2.315-5.787c-1.157-1.157-2.315-2.314-4.63-3.47q-1.156 2.313-4.628 4.628 0 3.47 2.314 4.63 2.314 1.155 4.63 0" fill="#F3A29D"/><path d="M49.308 112.98c-2.365-.174-6.23-.981-8.48-1.731l-4.21-1.385-.115-4.326c-.289-11.94.577-20.65 3.288-31.782C43.482 58.47 54.096 42.84 66.96 33.667c4.96-3.576 5.076-3.576 6.518-1.153.634 1.153 1.96 2.307 2.884 2.653l2.161.594q-4.57 43.986 3.531 72.917c-1.157 1.158-1.946 1.682-2.808 2.052-1.039.403-2.365.807-3.057.865-.693.058-3 .519-5.25 1.038-4.21.923-13.382 1.096-21.63.346z" fill="url(#paint1_linear_2664_5084)"/><path fill-rule="evenodd" clip-rule="evenodd" d="M94.472 54.828 96.24 66.14l-19.972 2.645 1.106-15.653q3.212 2.602 6.608 3.123t10.49-1.426z" fill="#D6D7D8"/><path d="m98.254 60.653 4.903 23.145q-.853 1.736-4.324 2.314c-5.208.579-10.415-1.736-16.78-1.736s-6.09 4.05-15.348.58q-9.258-3.472-7.523-31.246l18.054-1.73q-.117 8.673 2.198 10.409 2.269 1.701 18.17-1.6z" fill="#E9E9E9"/><path d="M90.305 15.444q1.605 2.28 1.253 6.049c-.062.656-.376.883-.376 2.052q0 1.68.212 4.157l-2.317.16q-3.333 3.618-7.055 3.208-3.72-.412-5.31-3.207-3.269-6.035 1.675-10.262 4.945-4.227 11.918-2.157" fill="#FAB6AF"/><path fill-rule="evenodd" clip-rule="evenodd" d="M79.646 8c2.598 0 5.717 1.017 7.994 2.74 2.277 1.722 3.845 3.02 4.55 5.097q.705 2.076-.664 5.791.195-3.517-.533-3.906c-.67 1.653-1.595 1.987-2.703 2.787-.62.448-2.791.518-4.917.897-2.628 1.722-4.303 3.33-4.867 4.86-.448 1.218-.402 2.608.148 4.177l.126.339-.54.21c-.714-1.833-.81-3.478-.277-4.925.522-1.417 1.85-2.838 3.894-4.321-1.09.307-2.051.754-2.634 1.449q-1.919 2.29-2.246 6.716-4.149-.75-7.617-2.8t-6.398-5.483q.595-1.251 1.521-2.07c.671-.592 1.935-1.108 3.169-1.822l-.065.021-1.204.401c-1.26.424-1.956.713-2.395 1.032-.83.601-1.26 1.275-1.313 2.032l-.005.191-.579.007c-.012-1.039.516-1.943 1.557-2.699.427-.31 1.013-.573 1.983-.916l1.756-.59.61-.213a15 15 0 0 0 1.439-.584c1.296-1.399 2.17-3.971 4.09-5.678C75.641 8.855 77.048 8 79.645 8z" fill="#E94A47"/><path d="M84.36 21.575c.597-1.64 2.17-2.597 3.535-2.1 1.06.386 1.654 1.524 1.586 2.781q.54-.136.988-.136l.208.007q.382.029.636.114c.512-1.27 1.708-2.023 2.75-1.644 1.07.39 1.498 1.803 1.012 3.14-.487 1.337-1.723 2.144-2.794 1.754-.953-.347-1.397-1.504-1.14-2.697a2 2 0 0 0-.508-.09q-.501-.037-1.208.165l-.031.01a4 4 0 0 1-.14.477c-.597 1.64-2.17 2.597-3.536 2.1s-1.955-2.24-1.358-3.88m9.504-.434c-.73-.266-1.664.343-2.052 1.408-.387 1.066-.064 2.132.667 2.398.73.266 1.664-.343 2.052-1.408s.064-2.132-.667-2.398m-6.167-1.122c-1.036-.377-2.297.39-2.793 1.754s-.024 2.762 1.012 3.14c1.036.376 2.298-.392 2.794-1.755s.023-2.762-1.013-3.14z" fill="#222768"/><path d="M153.783 115.079c-.449-.4-.897-2.243-1.097-4.187-.399-3.938-.698-4.486-3.589-6.031l-2.093-1.147-3.788 1.545c-2.094.848-4.087 1.446-4.436 1.296-.947-.349-6.78-10.716-6.78-12.012 0-.698 1.048-1.894 3.24-3.589l3.24-2.542V82.93l-3.24-2.542c-2.043-1.595-3.24-2.89-3.24-3.539 0-1.047 5.085-10.417 6.331-11.663.598-.549 1.196-.499 4.037.598 4.736 1.844 5.085 1.894 7.627.25 2.243-1.447 2.292-1.546 2.641-4.637.648-5.93-.15-5.383 8.075-5.383 8.324 0 7.776-.349 8.424 5.533l.349 3.24 2.592 1.395 2.592 1.396 3.19-1.296c4.037-1.645 5.183-1.645 6.38.1 2.093 3.04 5.582 9.57 5.582 10.467 0 .648-1.196 1.894-3.24 3.39l-3.19 2.442v2.99l-.05 2.991 3.24 2.443c2.044 1.545 3.24 2.79 3.24 3.39 0 1.046-5.582 10.915-6.679 11.812-.548.449-1.645.2-4.586-.997l-3.937-1.545-2.542 1.396-2.542 1.395-.599 3.988c-.348 2.691-.847 4.237-1.395 4.685-1.296.947-12.81.848-13.757-.15m11.414-19.639c6.58-2.99 8.374-11.265 3.639-16.698-6.28-7.128-17.844-3.29-18.792 6.23-.398 4.287 2.991 9.371 7.377 11.066 1.595.598 5.832.3 7.776-.598" fill="var(--B700)" style="animation:rotate-clockwise 2s infinite linear;transform-origin:center;transform-box:fill-box"/><path d="M176.263 146.231c-1.845-1.146-3.49-2.243-3.64-2.442-.149-.25.2-1.545.749-2.841.996-2.293.996-2.443.15-4.038-.699-1.345-1.197-1.644-3.141-1.894-3.639-.498-3.49-.249-3.49-5.433v-4.735l1.895-.299c3.589-.598 3.838-.698 4.785-2.243.897-1.545.847-1.595-.15-4.037-.598-1.346-.947-2.692-.797-2.891.299-.549 7.128-4.536 7.726-4.536.249 0 1.296.997 2.342 2.243 1.446 1.744 2.194 2.243 3.39 2.243s1.944-.499 3.39-2.243c1.046-1.246 2.093-2.243 2.342-2.243.598 0 7.427 3.987 7.726 4.536.15.2-.2 1.545-.748 2.89-.997 2.293-1.047 2.543-.299 3.988.798 1.496 1.196 1.695 4.935 2.293l1.844.3v4.734c0 5.184.15 4.935-3.49 5.433-1.893.25-2.442.549-3.14 1.894-.797 1.546-.797 1.695.15 4.187l.997 2.592-1.396.947c-2.542 1.745-6.03 3.589-6.729 3.589-.448 0-1.445-.947-2.292-2.044-1.247-1.744-1.795-2.093-3.29-2.143s-1.944.25-3.34 2.094c-.847 1.146-1.944 2.093-2.342 2.093-.449 0-2.293-.897-4.137-1.994m13.109-10.716c4.486-2.343 4.486-9.371-.1-11.813-5.832-3.14-12.212 3.19-9.171 9.121 1.595 3.09 6.03 4.337 9.27 2.692z" fill="var(--R500)" style="animation:rotate-counter-clockwise 2s infinite linear;transform-origin:center;transform-box:fill-box"/><defs><linearGradient id="paint0_linear_2664_5084" x1="53.366" y1="112.162" x2="38.26" y2="175.224" gradientUnits="userSpaceOnUse"><stop stop-color="#2A318C"/><stop offset="1" stop-color="#1D225F"/></linearGradient><linearGradient id="paint1_linear_2664_5084" x1="59.252" y1="30.82" x2="59.252" y2="113.448" gradientUnits="userSpaceOnUse"><stop stop-color="#EEE"/><stop offset="1" stop-color="#D6D7D8"/></linearGradient></defs></svg>
